!!!OTL: Niulang Wan huadeng
!!!ARE: Asia, China,ÿHenan, Lushi
!! IV, 167
!!!SCT: C1668
!!!YEM: Copyright 1995, estate of Helmut Schaffrath.
**kern
*ICvox
*Ivox
!! Mixed meters:  2/4; 3/4
*M3/4
*k[f#c#]
*D:
{8f#
8a
8b
16dd
16b
=1
4a
8a
8b
=2
8ee
8ee
8b
16dd
16b
=3
4a
4a}
=4
{8a
8a
8b
8ee
4b
=5
8.b
16dd
4a
4b
=6
*M2/4
8ee
8ee
8b
8dd
=7
4a
4a}
==
!!!AGN: Xiaodiao
!!!AMT: irregular
!!!AIN: vox
!!!EED: Helmut Schaffrath
!!!EEV: 1.0
*-
